Komodo/actions/scalable/edit-copy-symbolic.svg

<?xml version="1.0" encoding="UTF-8" standalone="no"?>
<!-- Created with Inkscape (http://www.inkscape.org/) -->
<svg id="svg2" xmlns:rdf="http://www.w3.org/1999/02/22-rdf-syntax-ns#" xmlns="http://www.w3.org/2000/svg" height="16" width="16" version="1.0" xmlns:cc="http://creativecommons.org/ns#" xmlns:dc="http://purl.org/dc/elements/1.1/">
 <metadata id="metadata7">
  <rdf:RDF>
   <cc:Work rdf:about="">
    <dc:format>image/svg+xml</dc:format>
    <dc:type rdf:resource="http://purl.org/dc/dcmitype/StillImage"/>
   </cc:Work>
  </rdf:RDF>
 </metadata>
 <g id="layer1">
  <path id="Symbol" style="fill:#bebebe" d="m5.5 0c-0.831 0-1.5 0.669-1.5 1.5v10c0 0.831 0.669 1.5 1.5 1.5h8c0.831 0 1.5-0.669 1.5-1.5v-10c0-0.831-0.669-1.5-1.5-1.5zm1 2h6c0.277 0 0.5 0.223 0.5 0.5v8c0 0.277-0.223 0.5-0.5 0.5h-6c-0.277 0-0.5-0.223-0.5-0.5v-8c0-0.277 0.223-0.5 0.5-0.5zm-4 2c-0.831 0-1.5 0.669-1.5 1.5v9c0 0.831 0.669 1.5 1.5 1.5h7c0.831 0 1.5-0.669 1.5-1.5v-0.5h-2.5-5c-0.277 0-0.5-0.223-0.5-0.5v-7-2.5z"/>
 </g>
</svg>

<?xml version="1.0" encoding="UTF-8" standalone="no"?>
<!-- Created with Inkscape (http://www.inkscape.org/) -->

<svg
   xmlns:dc="http://purl.org/dc/elements/1.1/"
   xmlns:cc="http://creativecommons.org/ns#"
   xmlns:rdf="http://www.w3.org/1999/02/22-rdf-syntax-ns#"
   xmlns:svg="http://www.w3.org/2000/svg"
   xmlns="http://www.w3.org/2000/svg"
   xmlns:sodipodi="http://sodipodi.sourceforge.net/DTD/sodipodi-0.dtd"
   xmlns:inkscape="http://www.inkscape.org/namespaces/inkscape"
   width="16"
   height="16"
   id="svg2"
   sodipodi:version="0.32"
   inkscape:version="0.48.1 r9760"
   version="1.0"
   sodipodi:docname="edit-copy.svg"
   inkscape:output_extension="org.inkscape.output.svg.inkscape"
   inkscape:export-filename="/home/matt/.icons/Sirocco/scalable/mimetypes/text-plain.png"
   inkscape:export-xdpi="90"
   inkscape:export-ydpi="90"
   sodipodi:modified="true"
   style="display:inline">
  <sodipodi:namedview
     id="base"
     pagecolor="#ffffff"
     bordercolor="#666666"
     borderopacity="1.0"
     inkscape:pageopacity="0.0"
     inkscape:pageshadow="2"
     inkscape:zoom="17.473965"
     inkscape:cx="-20.276274"
     inkscape:cy="-0.73891209"
     inkscape:document-units="px"
     inkscape:current-layer="layer1"
     width="128px"
     height="128px"
     inkscape:showpageshadow="false"
     inkscape:window-width="1920"
     inkscape:window-height="1028"
     inkscape:window-x="0"
     inkscape:window-y="25"
     showguides="true"
     inkscape:guide-bbox="true"
     showgrid="true"
     inkscape:window-maximized="1">
    <sodipodi:guide
       id="guide2226"
       position="32.637397,117.99844"
       orientation="horizontal" />
    <sodipodi:guide
       id="guide2230"
       position="110,57.402344"
       orientation="vertical" />
    <sodipodi:guide
       id="guide2232"
       position="33.760911"
       orientation="horizontal" />
    <sodipodi:guide
       id="guide2231"
       position="46.774696"
       orientation="horizontal" />
    <inkscape:grid
       enabled="true"
       visible="true"
       id="grid3231"
       type="xygrid" />
    <sodipodi:guide
       orientation="1,0"
       position="100,67.625"
       id="guide2713" />
  </sodipodi:namedview>
  <defs
     id="defs4" />
  <metadata
     id="metadata7">
    <rdf:RDF>
      <cc:Work
         rdf:about="">
        <dc:format>image/svg+xml</dc:format>
        <dc:type
           rdf:resource="http://purl.org/dc/dcmitype/StillImage" />
      </cc:Work>
    </rdf:RDF>
  </metadata>
  <g
     style="display:inline"
     inkscape:label="Calque 1"
     id="layer1"
     inkscape:groupmode="layer">
    <path
       style="fill:#bebebe;fill-opacity:1;stroke:none;display:inline"
       d="M 5.5,0 C 4.669,0 4,0.669 4,1.5 l 0,10 C 4,12.331 4.669,13 5.5,13 l 8,0 c 0.831,0 1.5,-0.669 1.5,-1.5 l 0,-10 C 15,0.669 14.331,0 13.5,0 z m 1,2 6,0 C 12.777,2 13,2.223 13,2.5 l 0,8 c 0,0.277 -0.223,0.5 -0.5,0.5 l -6,0 C 6.223,11 6,10.777 6,10.5 l 0,-8 C 6,2.223 6.223,2 6.5,2 z m -4,2 C 1.669,4 1,4.669 1,5.5 l 0,9 C 1,15.331 1.669,16 2.5,16 l 7,0 c 0.831,0 1.5,-0.669 1.5,-1.5 l 0,-0.5 -2.5,0 -5,0 C 3.223,14 3,13.777 3,13.5 L 3,6.5 3,4 z"
       id="Symbol"
       sodipodi:nodetypes="ccccccccccccccccccccccccccccccc"
       inkscape:connector-curvature="0" />
  </g>
</svg>
